X:5
T: Kolomeyke (R-165)
M: C|
L:1/8
K: Am % transposed from Dm
|:"Am"a2 e4 e2|"Dm"d2 d2 "Am"e3 d|cBAB cBcd|"E"e4 e4|
"Am"a2 e4 e2|"Dm"d2 d2 "Am"e3 d|"E" cedc BdcB|"Am"AEcB A4:|
|:"E"B2 E2 e3B|"Am"dcBc dcBA|"E"^G2 AB E2 ^F^G|[1,3"Am"A^GAB cBcA:|[2,4"Am"AEcB A4:|]
%%text 
  
#include "LeftHeader.h"
%%text Set 83
%%vskip -1cm
%%scale .72
